X:190
T:Sunny Banks (reel), The  
B:CRE1.148 (Bruachanna Greine)
F:file ID: cre.1/190sunny
S:Ned Stapleton
M:C
L:1/8
Q:180
R:reel
K:D
d/B/|AFF2 dFF2|(3Bcd cA G2FG|AFF2 dFAF|GBAF D2FG|
AFF2 dFF2|(3Bcd cA GAFG|AGFE FEFA|dBAF D3:|
g|f2ed cAAg|fdef g2ag|f2eg fdAd|(3Bcd AG FDDg|
f2ed cAAg|f2de fgag|f2eg fdAd|(3Bcd AF D3:|

%%%

